src/components/Home/Core/assets/core-monitoring.svg

<svg width="82" height="81" viewBox="0 0 82 81" fill="none" xmlns="http://www.w3.org/2000/svg">
<path d="M70.775 73.7329H10.8906V25.9096C10.8906 23.3889 12.9416 21.3379 15.4624 21.3379H66.2032C68.724 21.3379 70.775 23.3889 70.775 25.9096V73.7329Z" fill="white"/>
<path d="M68.4272 22.6377H12.9688V32.5163H68.4272V22.6377Z" fill="#B69538"/>
<path d="M70.775 73.7329H10.8906V25.9096C10.8906 23.3889 12.9416 21.3379 15.4624 21.3379H66.2032C68.724 21.3379 70.775 23.3889 70.775 25.9096V73.7329ZM13.758 70.8644H67.9052V25.9096C67.9052 24.9702 67.1415 24.2064 66.202 24.2064H15.4612C14.5217 24.2064 13.758 24.9702 13.758 25.9096V70.8644Z" fill="#4C4C4C"/>
<path d="M69.2173 30.5791H12.4453V33.4477H69.2173V30.5791Z" fill="#4C4C4C"/>
<path d="M71.9871 80.999H9.67294C4.33865 80.999 0 76.6592 0 71.3261V67.5766C0 65.1886 1.94343 63.2451 4.33149 63.2451H32.2925L33.8738 65.332H47.7874L49.3687 63.2451H77.3298C79.7178 63.2451 81.6613 65.1886 81.6613 67.5766V71.3249C81.6613 76.6591 77.3214 80.999 71.9871 80.999Z" fill="white"/>
<path d="M40.8326 36.6993C36.0601 36.6993 31.5732 34.8408 28.1979 31.4655C21.2309 24.4985 21.2309 13.163 28.1979 6.19602C30.0624 4.33147 32.2592 2.93186 34.7262 2.03664L40.3365 0V14.669H41.3286V0L46.939 2.03664C49.4059 2.93186 51.6027 4.33147 53.4673 6.19602C60.4342 13.163 60.4342 24.4985 53.4673 31.4655C50.092 34.8408 45.6051 36.6993 40.8326 36.6993Z" fill="white"/>
<path d="M71.9842 78.2509H9.67002C5.85128 78.2509 2.74609 75.1446 2.74609 71.327V67.5776C2.74609 66.7051 3.45606 65.9951 4.32857 65.9951H30.9235L32.5048 68.082H49.1507L50.732 65.9951H77.3269C78.1994 65.9951 78.9094 66.7051 78.9094 67.5776V71.3258C78.9094 75.1446 75.803 78.2509 71.9842 78.2509Z" fill="#B69538"/>
<path d="M41.0762 63.7244H40.5838C36.7961 63.7244 33.7148 60.6432 33.7148 56.8555V29.9678H47.9451V56.8555C47.9451 60.6432 44.8638 63.7244 41.0762 63.7244Z" fill="#B69538"/>
<path d="M41.0762 63.7244H40.5838C36.7961 63.7244 33.7148 60.6432 33.7148 56.8555V29.9678H47.9451V56.8555C47.9451 60.6432 44.8638 63.7244 41.0762 63.7244ZM36.5834 32.8363V56.8555C36.5834 59.0619 38.3786 60.8559 40.5838 60.8559H41.0762C43.2826 60.8559 45.0766 59.0607 45.0766 56.8555V32.8363H36.5834Z" fill="#4C4C4C"/>
<path d="M40.8313 57.4243C42.0908 57.4243 43.1118 56.4033 43.1118 55.1438C43.1118 53.8843 42.0908 52.8633 40.8313 52.8633C39.5718 52.8633 38.5508 53.8843 38.5508 55.1438C38.5508 56.4033 39.5718 57.4243 40.8313 57.4243Z" fill="#4C4C4C"/>
<path d="M71.9842 78.2509H9.67002C5.85128 78.2509 2.74609 75.1446 2.74609 71.327V67.5776C2.74609 66.7051 3.45606 65.9951 4.32857 65.9951H30.9235L32.5048 68.082H49.1507L50.732 65.9951H77.3269C78.1994 65.9951 78.9094 66.7051 78.9094 67.5776V71.3258C78.9094 75.1446 75.803 78.2509 71.9842 78.2509ZM5.61463 68.8649V71.327C5.61463 73.5633 7.43375 75.3824 9.67002 75.3824H71.9842C74.2205 75.3824 76.0396 73.5633 76.0396 71.327V68.8649H52.1567L50.5754 70.9517H31.0789L29.4976 68.8649H5.61463Z" fill="#4C4C4C"/>
<path d="M45.5083 18.8521H36.1497V5.96875C34.3257 6.63091 32.6142 7.69226 31.1524 9.15402C25.8086 14.4979 25.8086 23.1633 31.1524 28.5072C36.4963 33.851 45.1617 33.851 50.5055 28.5072C55.8494 23.1633 55.8494 14.4979 50.5055 9.15402C49.0426 7.69106 47.3322 6.63091 45.5083 5.96875V18.8521Z" fill="#B69538"/>
<path d="M40.8305 33.9435C36.9592 33.9435 33.0866 32.4698 30.1392 29.5224C27.2838 26.667 25.7109 22.8698 25.7109 18.8311C25.7109 14.7924 27.2838 10.9964 30.1392 8.13983C31.7169 6.56213 33.5755 5.37767 35.6612 4.6199L37.5843 3.92188V17.4172H44.0744V3.92188L45.9975 4.6199C48.0831 5.37767 49.9417 6.56093 51.5194 8.13983C54.3748 10.9952 55.9477 14.7924 55.9477 18.8311C55.9477 22.8698 54.3748 26.6658 51.5194 29.5224C48.5744 32.4698 44.7019 33.9435 40.8305 33.9435ZM34.7169 8.21155C33.7918 8.74462 32.9385 9.39959 32.1675 10.1693C27.3914 14.9454 27.3914 22.718 32.1675 27.4941C36.9437 32.2702 44.7162 32.2702 49.4923 27.4941C54.2684 22.718 54.2684 14.9454 49.4923 10.1693C48.7214 9.39839 47.8692 8.74343 46.9429 8.21155V20.2869H34.7157V8.21155H34.7169Z" fill="#4C4C4C"/>
</svg>

<svg width="82" height="81" fill="none" xmlns="http://www.w3.org/2000/svg"><path d="M70.775 73.733H10.891V25.91a4.577 4.577 0 0 1 4.571-4.572h50.741a4.577 4.577 0 0 1 4.572 4.572v47.823z" fill="#fff"/><path d="M68.427 22.638H12.97v9.878h55.458v-9.878z" fill="#B69538"/><path d="M70.775 73.733H10.891V25.91a4.577 4.577 0 0 1 4.571-4.572h50.741a4.577 4.577 0 0 1 4.572 4.572v47.823zm-57.017-2.869h54.147V25.91c0-.94-.764-1.704-1.703-1.704h-50.74c-.94 0-1.704.764-1.704 1.704v44.954z" fill="#4C4C4C"/><path d="M69.217 30.58H12.445v2.868h56.772v-2.869z" fill="#4C4C4C"/><path d="M71.987 80.999H9.673C4.339 80.999 0 76.659 0 71.326v-3.75a4.337 4.337 0 0 1 4.331-4.33h27.961l1.582 2.086h13.913l1.582-2.087h27.96a4.337 4.337 0 0 1 4.332 4.332v3.748c0 5.334-4.34 9.674-9.674 9.674zm-31.154-44.3a17.75 17.75 0 0 1-12.635-5.233c-6.967-6.968-6.967-18.303 0-25.27a17.715 17.715 0 0 1 6.528-4.16L40.336 0v14.669h.993V0l5.61 2.037a17.717 17.717 0 0 1 6.528 4.159c6.967 6.967 6.967 18.303 0 25.27a17.75 17.75 0 0 1-12.634 5.233z" fill="#fff"/><path d="M71.984 78.25H9.67a6.931 6.931 0 0 1-6.924-6.923v-3.75c0-.872.71-1.582 1.583-1.582h26.595l1.58 2.087h16.647l1.581-2.087h26.595c.872 0 1.582.71 1.582 1.583v3.748a6.933 6.933 0 0 1-6.925 6.925zM41.076 63.725h-.492a6.877 6.877 0 0 1-6.87-6.868V29.967h14.231v26.887a6.877 6.877 0 0 1-6.869 6.87z" fill="#B69538"/><path d="M41.076 63.724h-.492a6.877 6.877 0 0 1-6.87-6.868V29.967h14.231v26.887a6.877 6.877 0 0 1-6.869 6.87zm-4.493-30.888v24.02c0 2.206 1.796 4 4 4h.493c2.207 0 4-1.795 4-4v-24.02h-8.493z" fill="#4C4C4C"/><path d="M40.831 57.424a2.28 2.28 0 1 0 0-4.56 2.28 2.28 0 0 0 0 4.56zm31.153 20.827H9.67a6.931 6.931 0 0 1-6.924-6.924v-3.75c0-.872.71-1.582 1.583-1.582h26.595l1.58 2.087h16.647l1.581-2.087h26.595c.872 0 1.582.71 1.582 1.583v3.748a6.933 6.933 0 0 1-6.925 6.925zm-66.37-9.386v2.462a4.06 4.06 0 0 0 4.056 4.055h62.314a4.06 4.06 0 0 0 4.056-4.055v-2.462H52.157l-1.582 2.087H31.08l-1.581-2.087H5.615z" fill="#4C4C4C"/><path d="M45.508 18.852H36.15V5.97a13.631 13.631 0 0 0-4.998 3.185c-5.343 5.344-5.343 14.01 0 19.353 5.344 5.344 14.01 5.344 19.353 0 5.344-5.344 5.344-14.01 0-19.353a13.625 13.625 0 0 0-4.997-3.185v12.883z" fill="#B69538"/><path d="M40.83 33.944a15.074 15.074 0 0 1-10.69-4.422 15.021 15.021 0 0 1-4.43-10.69c0-4.04 1.574-7.836 4.43-10.692a15.002 15.002 0 0 1 5.521-3.52l1.923-.698v13.495h6.49V3.922l1.924.698a14.987 14.987 0 0 1 5.521 3.52 15.021 15.021 0 0 1 4.429 10.691c0 4.039-1.573 7.835-4.429 10.691a15.064 15.064 0 0 1-10.688 4.422zM34.718 8.212a12.285 12.285 0 0 0-2.55 1.957c-4.776 4.776-4.776 12.549 0 17.325 4.777 4.776 12.55 4.776 17.325 0 4.776-4.776 4.776-12.549 0-17.325a12.17 12.17 0 0 0-2.55-1.957v12.075H34.717V8.212z" fill="#4C4C4C"/></svg>
